X: 22407
T: Ladies In The Center
R: polka
M: 2/4
K: Gmajor
|:G,>A, B,D|ED GF/E/|[M:3/4] DG BG A2|
G,>A, B,D|ED GF/E/|[M:3/4] DB, A,B, G,2:|
|:[M:2/4] Bd Bc/B/|AG ED|GF/E/ DG|BG A2|
Bd Bc/B/|AG ED|GF/E/ DB,|A,B, G,2:|

